X:16071
T:Stumpie
Z:Footnote: 15 July 1996
M:4/4
L:1/8
Q:128
K:A
|:c3/2e/a3/2b/ a/g/f/e/a2|c3/2e/a2 b/B3/2B3/2d/|c3/2e/a3/2b/ a/g/f/e/a2|
c/e3/2B3/2d/ c/A3/2A2|
W: A A E7 A A E7 A
c3/2e/a3/2b/ a/g/f/e/a2|c3/2e/a2 b/B3/2B3/2d/|c3/2e/a3/2b/ a/g/f/e/a2|c/
e3/2B3/2d/ c/A3/2A3/2d/|
W: A A E7 A A E7 A
c/e3/2e3/2c/ d/f3/2f3/2d/|c/e3/2e3/2c/ d/B3/2B3/2d/|c/e3/2e3/2c/ d/f3/2f
3/2d/|c/e3/2B3/2d/ c/A3/2A2|
W: A D A E7 A D E7 A
c/e3/2e3/2c/ d/f3/2f3/2d/|c/e3/2e3/2c/ d/B3/2B3/2d/|c/e3/2e3/2c/ d/f3/2f
3/2d/|c/e3/2B3/2d/ c/A3/2A2:|
W: A D A E7 A D E7 A
